X:7829
T:Sl\aatten hass Kroglund i Trondhjem
C:anon.
O:Norway
A:Trondheim
N:After Ole B. Sende, Leksdal
R:Reinlender?
Z:Transcribed by Frank Nordberg - http://www.musicaviva.com
F:http://abc.musicaviva.com/tunes/norway/kroglund-slaatt/kroglund-slaatt-1.abc
%v = downstroke
M:2/4
L:1/16
K:D
vABAF d2d2|BdBG e2e2|cdcA g2g2|fgaf d2d2|
ABAF d2d2|BdBG e2e2|cdcA a2(ac)|d2d2 d4:|
|:ABAG (FA)(FA)|GBGF E2E2|E2(gf) edcB|ABAG F2D2|
F2(FA) (FA)(FA)|GBGF E2E2|E2(gf) edcB|A2Bc d4:|
W:
W:
W:  From Musica Viva - http://www.musicaviva.com
W:  the Internet center for free sheet music downloads.

